X:1
T:Title
%%score { 1 | 2 }
L:1/8
M:4/4
K:G
V:1 treble nm="Grand Piano"
V:2 bass 
V:1
 z4 z2 z[Q:1/4=100] [B,D] | [B,D][DB][CA][B,G] G F2 E | Dc[Fc][Ec] [DB]3 [B,D] | %3
 [B,D][DB][CA][B,G] [DG] [DF]2 [FA] | AAB^c [Fd]3 [CD] | [B,D][DB][CA][B,G] G F2 E | %6
 Dc[Fc][Ec] [DB]3 [DB] | dBAG [Ec] [Ge]2 [Ge] | [Gd][Fc][GB][FA] G4 | d2 d2 d3 d | edcB c4 | %11
 [Fc]2 [Fc]2 [Fc]3 [Fc] | [Fd][Fc][GB][FA] B4 | d2 d2 d3 d | edcB c4 | [Ge]2 [Ge]2 d3 B | %16
[M:7/8] Bc[GB] [FA] [DG]3 |] %17
V:2
 z4 z2 z [G,,G,] | [G,,G,][G,,G,][G,,G,][G,,G,] [D,A,C] [D,A,C]2 [D,G,C] | %2
 [D,F,C][D,F,D][D,A,][D,F,] [G,,G,]3 [G,,G,] | [G,,G,][G,,G,][G,,G,][G,,G,] [D,B,] [D,A,]2 [D,D] | %4
 [A,DF][A,DF][A,EG][A,EG][K:bass] [D,D]3 [D,F,] | %5
 [G,,G,][G,,G,][G,,G,][G,,G,] [D,A,C] [D,A,C]2 [D,G,C] | %6
 [D,F,C][D,F,D][D,A,][D,F,] [G,,G,]3 [G,,G,] | %7
 [G,B,G][G,DG][G,C=F][G,B,F][K:bass] [C,C] [C,C]2 [C,C] | [D,B,][D,A,][D,D][D,C] [G,B,]4 | %9
 [G,B,G]2 [A,CF]2 [B,DG]3 [B,DG] | [CG][B,DG][A,DF][G,DG] [A,DF]4 | [D,D]2 [F,D]2 [A,D]3 [D,D] | %12
 [D,A,][D,A,][D,D][D,D][K:treble] [G,DG]4 | [G,B,G]2 [A,CF]2 [B,DG]3 [B,DG] | %14
 [CG][B,DG][A,DF][G,DG] [A,DF]4 | [C,C]2 [E,C]2[K:treble] [G,B,G]3 [G,DG] | %16
[M:7/8] [G,DG][G,EG][K:bass][D,D] [D,C] [G,B,]3 |] %17

